img/svg/editors/bookmark-check.svg

<svg width="24" height="24" viewBox="0 0 24 24" fill="none" xmlns="http://www.w3.org/2000/svg">
<path d="M6 0.428711H18C18.5968 0.428711 19.1723 0.6358 19.6299 1.01074L19.8184 1.18164C20.3006 1.66388 20.5713 2.31801 20.5713 3V23.25L20.5596 23.335C20.5519 23.3629 20.5404 23.39 20.5254 23.415C20.4955 23.4648 20.4525 23.5058 20.4014 23.5332C20.3502 23.5605 20.2923 23.5731 20.2344 23.5703L20.1494 23.5547C20.1223 23.5458 20.0963 23.5335 20.0723 23.5176L20.0557 23.5059L20.0381 23.4971L12.2031 19.2744L12 19.165L11.7969 19.2744L3.96191 23.4971L3.94434 23.5059L3.92773 23.5176C3.87951 23.5496 3.82345 23.5675 3.76562 23.5703L3.67969 23.5635C3.65155 23.5572 3.6243 23.5469 3.59863 23.5332C3.54748 23.5058 3.50449 23.4648 3.47461 23.415C3.44476 23.3652 3.42878 23.3081 3.42871 23.25V3C3.42871 2.40324 3.6358 1.8277 4.01074 1.37012L4.18164 1.18164C4.60365 0.759631 5.15735 0.499812 5.74609 0.441406L6 0.428711ZM6 1.07129C5.48851 1.07129 4.9984 1.27504 4.63672 1.63672C4.27504 1.9984 4.07129 2.48851 4.07129 3V22.5586L4.69922 22.2285L11.7842 18.5059L11.8037 18.4951L11.8223 18.4824C11.8749 18.4475 11.9368 18.4287 12 18.4287C12.0632 18.4287 12.1251 18.4475 12.1777 18.4824L12.1963 18.4951L12.2158 18.5059L19.3008 22.2285L19.9287 22.5586V3C19.9287 2.55242 19.7734 2.12053 19.4922 1.77734L19.3633 1.63672C19.0016 1.27504 18.5115 1.07129 18 1.07129H6ZM15.75 7.92676C15.771 7.92676 15.792 7.92952 15.8125 7.93359L15.873 7.95215C15.8925 7.96023 15.9113 7.96978 15.9287 7.98145L15.9775 8.02148L15.9785 8.02246C15.9935 8.0374 16.0069 8.0538 16.0186 8.07129L16.0479 8.12695C16.0641 8.16601 16.0732 8.20772 16.0732 8.25C16.0732 8.27105 16.0705 8.29195 16.0664 8.3125L16.0479 8.37305C16.0398 8.39252 16.0302 8.41127 16.0186 8.42871L15.9785 8.47754H15.9775L11.4775 12.9775V12.9785C11.4626 12.9935 11.4462 13.0069 11.4287 13.0186L11.373 13.0479C11.334 13.0641 11.2923 13.0732 11.25 13.0732C11.229 13.0732 11.208 13.0705 11.1875 13.0664L11.127 13.0479C11.1075 13.0398 11.0887 13.0302 11.0713 13.0186L11.0225 12.9785V12.9775L8.77246 10.7275C8.74253 10.6976 8.71835 10.6622 8.70215 10.623C8.68602 10.584 8.67773 10.5422 8.67773 10.5L8.68359 10.4375C8.68768 10.4168 8.69405 10.3966 8.70215 10.377C8.71835 10.3378 8.74253 10.3024 8.77246 10.2725C8.78744 10.2575 8.80375 10.2441 8.82129 10.2324L8.87695 10.2021C8.91599 10.186 8.95777 10.1777 9 10.1777C9.02102 10.1777 9.04197 10.1795 9.0625 10.1836L9.12305 10.2021C9.16216 10.2183 9.1976 10.2425 9.22754 10.2725V10.2715L10.9473 11.9922L11.25 12.2959L11.5527 11.9922L15.5225 8.02246V8.02148C15.5374 8.00652 15.5538 7.99314 15.5713 7.98145L15.627 7.95215C15.666 7.93594 15.7077 7.92676 15.75 7.92676Z" fill="#FBFBFB" stroke="#FBFBFB" stroke-width="0.857143"/>
</svg>

<svg width="24" height="24" fill="none" xmlns="http://www.w3.org/2000/svg"><path d="M6 .429h12c.597 0 1.172.207 1.63.582l.188.17c.483.483.753 1.137.753 1.819v20.25l-.011.085a.323.323 0 01-.326.235l-.085-.015a.32.32 0 01-.077-.037l-.016-.012-.018-.009-7.835-4.223-.203-.109-.203.11-7.835 4.222-.018.009-.016.012a.32.32 0 01-.162.052l-.086-.006a.322.322 0 01-.251-.314V3c0-.597.207-1.172.582-1.63l.17-.188a2.571 2.571 0 011.565-.74L6 .428zm0 .642A1.928 1.928 0 004.071 3v19.559l.628-.33 7.085-3.723.02-.01.018-.014a.322.322 0 01.356 0l.018.013.02.01L19.3 22.23l.628.33V3c0-.448-.156-.88-.437-1.223l-.129-.14A1.928 1.928 0 0018 1.07H6zm9.75 6.856c.021 0 .042.003.063.007l.06.018c.02.008.038.018.056.03l.048.04h.002a.32.32 0 01.04.05l.029.055a.322.322 0 01.018.185l-.018.061a.327.327 0 01-.03.056l-.04.049h0l-4.5 4.5v0a.317.317 0 01-.05.04l-.055.03a.321.321 0 01-.185.018l-.061-.018a.325.325 0 01-.056-.03l-.048-.04v0l-2.25-2.25a.322.322 0 01-.095-.228l.006-.063a.322.322 0 01.137-.205l.056-.03a.323.323 0 01.185-.018l.061.018c.04.016.075.04.105.07v0l1.72 1.72.302.304.303-.304 3.97-3.97v0a.319.319 0 01.048-.04l.056-.03a.32.32 0 01.123-.025z" fill="#FBFBFB" stroke="#FBFBFB" stroke-width=".857"/></svg>
